svg/earth_box_minus.svg

<svg xmlns="http://www.w3.org/2000/svg" viewBox="0 0 24 24"><path d="M22 17v2h-8v-2zM5 3h14a2 2 0 0 1 2 2v7.8c-.61-.35-1.28-.6-2-.72V5h-3.22c-.11 1-.95 1.79-1.98 1.79h-2v2c0 .56-.45 1-1 1h-2v2h6c.43 0 .8.27.94.65A6.01 6.01 0 0 0 12 17.83c-1.3-.04-2.2-.93-2.2-2.04v-1L5 10.29V19h7.08c.12.72.37 1.39.72 2H5a2 2 0 0 1-2-2V5c0-1.11.89-2 2-2"/></svg>

<?xml version="1.0" encoding="UTF-8"?><!DOCTYPE svg PUBLIC "-//W3C//DTD SVG 1.1//EN" "http://www.w3.org/Graphics/SVG/1.1/DTD/svg11.dtd"><svg xmlns="http://www.w3.org/2000/svg" xmlns:xlink="http://www.w3.org/1999/xlink" version="1.1" id="mdi-earth-box-minus" width="24" height="24" viewBox="0 0 24 24"><path d="M22 17V19H14V17H22M5 3H19C20.1 3 21 3.89 21 5V12.8C20.39 12.45 19.72 12.2 19 12.08V5H15.78C15.67 6 14.83 6.79 13.8 6.79H11.8V8.79C11.8 9.35 11.35 9.79 10.8 9.79H8.8V11.79H14.8C15.23 11.79 15.6 12.06 15.74 12.44C13.6 13.31 12.07 15.39 12 17.83C10.7 17.79 9.8 16.9 9.8 15.79V14.79L5 10.29V19H12.08C12.2 19.72 12.45 20.39 12.8 21H5C3.9 21 3 20.11 3 19V5C3 3.89 3.89 3 5 3Z" /></svg>
